X:50
T:Paddy Taylor's
R:reel
C:Paddy Taylor
Z:Transcribed by Dave Marshall
M:C|
K:Dmix
|:FDDF A3F|GEcE dEcE|FDDF ABAF| GEcE EDD2 :|
Add^c d2ed|^cAeA fAe^c|Add^c d2ed|^cAGE EDD2|
Add^c dfed|(3B^cd ef g2fg|afge d2^cA|Bd AG FDD2|
~F3G A3F|~G2dG ~G2dG|~F3G Addc|AcGE EDDE|
~F3G A3F|~G2dG eGdG|~F3G Addc|AcGE EDDE|
